static/assets/template/assets/img/icons/essential/detailed/Share.svg

<svg height="100" viewBox="0 0 150 100" width="150" xmlns="http://www.w3.org/2000/svg"><g fill="none" fill-rule="evenodd" transform="translate(2 -2)"><circle cx="137.1" cy="53.7" fill-rule="nonzero" r="9.1"/><circle cx="123.46679" cy="13.34139" fill-rule="nonzero" r="9.099913" transform="matrix(.70710678 -.70710678 .70710678 .70710678 26.728798 91.211807)"/><circle cx="122.23823" cy="90.95537" fill-rule="nonzero" r="9.099913" transform="matrix(.70710678 -.70710678 .70710678 .70710678 -28.51241 113.075692)"/><circle cx="9.1" cy="53.7" fill-rule="nonzero" r="9.1"/><circle cx="22.66701" cy="13.33947" fill-rule="nonzero" r="9.099913" transform="matrix(.70710678 -.70710678 .70710678 .70710678 -2.793416 19.935037)"/><circle cx="23.83619" cy="90.94861" fill-rule="nonzero" r="9.099913" transform="matrix(.70710678 -.70710678 .70710678 .70710678 -57.32892 43.492963)"/><circle cx="138.6" cy="55.2" fill-rule="nonzero" r="7.6"/><circle cx="125.0043" cy="14.85098" fill-rule="nonzero" r="7.599927" transform="matrix(.70710678 -.70710678 .70710678 .70710678 26.111683 92.74114)"/><circle cx="123.63391" cy="92.36577" fill-rule="nonzero" r="7.699926" transform="matrix(.70710678 -.70710678 .70710678 .70710678 -29.100928 114.475684)"/><circle cx="10.4" cy="55.1" fill-rule="nonzero" r="7.8"/><circle cx="24.20442" cy="14.84886" fill-rule="nonzero" r="7.599927" transform="matrix(.70710678 -.70710678 .70710678 .70710678 -3.410419 21.46424)"/><circle cx="25.23207" cy="92.35871" fill-rule="nonzero" r="7.699926" transform="matrix(.70710678 -.70710678 .70710678 .70710678 -57.917168 44.893008)"/><g transform="translate(41 21)"><path d="m53.6 53.4c-12.1 12.1-31.7 12.1-43.7 0-12.1-12.1-12.1-31.7 0-43.7 12.1-12.1 31.7-12.1 43.7 0 12.1 12 12.1 31.6 0 43.7z" fill-rule="nonzero"/><path d="m54.1 53.8c-11.4 11.4-29.9 11.4-41.2 0-11.4-11.4-11.4-29.8 0-41.2s29.8-11.4 41.2 0c11.4 11.3 11.4 29.8 0 41.2z" fill-rule="nonzero"/><path d="m32.2.6c7.7.1 15.5 3.1 21.4 9.1 12.1 12.1 12.1 31.7 0 43.7-3.7 3.7-8.2 6.3-13 7.8m-21.7-57.8c1.1-.5 2.3-1 3.4-1.3m2.6 59.6c-5.5-1.2-10.8-4-15.1-8.3-12.1-12.1-12.1-31.7 0-43.7.4-.4.9-.8 1.3-1.2" stroke-linecap="round" stroke-linejoin="round" stroke-width="3"/><g transform="translate(15 12)"><g fill-rule="nonzero"><path d="m7.4 14.3c1.6 3 4.8 5.1 8.4 5.1 5.3 0 9.5-4.3 9.5-9.5 0-5.3-4.3-9.5-9.5-9.5s-9.5 4.3-9.5 9.5c0 1.6.4 3.1 1.1 4.4"/><circle cx="17.4" cy="11.4" r="8"/><path d="m26.5 20.8c4.4 3.3 7.6 7.7 7.6 12.8 0 1.6-1.6 1.6-1.6 1.6h-11.8-7.2-11.8s-1.6 0-1.6-1.6c0-6.6 5.2-11.9 11.5-15.4"/><path d="m14.7 20.7c-5.8 2-9.8 7.5-9.8 13.2 0 1.4 1.4 1.4 1.4 1.4h10.1 6.2 10.1s1.4 0 1.4-1.4c0-4.4-2-8.4-5.6-11.5-1.1-1-2.3-1.9-3.7-2.4-3.1-1.2-6.6-.4-9.7.6-.1.1-.3.1-.4.1z"/></g><path d="m11.4 18.3c1.3.7 2.8 1.1 4.4 1.1 5.3 0 9.5-4.3 9.5-9.5 0-5.3-4.3-9.5-9.5-9.5s-9.5 4.3-9.5 9.5c0 1.1.2 2.1.5 3.1" stroke-linecap="round" stroke-linejoin="round" stroke-width="3"/><path d="m26.5 20.8c4.4 3.3 7.6 7.7 7.6 12.8 0 1.6-1.6 1.6-1.6 1.6h-11.8-7.2-11.8s-1.6 0-1.6-1.6c0-6.6 5.2-11.9 11.5-15.4" stroke-linecap="round" stroke-linejoin="round" stroke-width="3"/></g></g><g stroke-linecap="round" stroke-linejoin="round"><circle cx="137.1" cy="53.7" r="9.1" stroke-width="3"/><path d="m123.6 53.7h-11.3" stroke-width="3"/><circle cx="123.46679" cy="13.34139" r="9.099913" stroke-width="2.999971" transform="matrix(.70710678 -.70710678 .70710678 .70710678 26.728798 91.211807)"/><path d="m113.9 22.9-7.9 8" stroke-width="3"/><path d="m120.5 82c-1.7.3-3.4 1.2-4.7 2.5-3.6 3.6-3.6 9.4 0 12.9 3.6 3.6 9.4 3.6 12.9 0 3.6-3.6 3.6-9.4 0-12.9-.5-.5-1.1-1-1.7-1.4" stroke-width="3"/><path d="m112.7 81.5-7.9-8" stroke-width="3"/><circle cx="9.1" cy="53.7" r="9.1" stroke-width="3"/><path d="m22.6 53.7h11.2" stroke-width="3"/><path d="m29.9 19c2.8-3.6 2.6-8.8-.7-12.1-2-2-4.7-2.9-7.3-2.6" stroke-width="3"/><path d="m15.8 7.3c-3.2 3.6-3 9.1.4 12.5 1.9 1.9 4.4 2.8 6.9 2.7" stroke-width="3"/><path d="m32.2 22.9 8 8" stroke-width="3"/><path d="m30.9 96.9c-.2.2-.3.4-.5.6-3.6 3.6-9.4 3.6-12.9 0-3.6-3.6-3.6-9.4 0-12.9 3.6-3.6 9.4-3.6 12.9 0 1.5 1.5 2.4 3.5 2.6 5.5" stroke-width="3"/><path d="m33.4 81.5 8-8" stroke-width="3"/></g></g></svg>

<?xml version="1.0" encoding="UTF-8"?>
<svg width="150px" height="100px" viewBox="0 0 150 100" version="1.1" xmlns="http://www.w3.org/2000/svg" xmlns:xlink="http://www.w3.org/1999/xlink">
    <!-- Generator: Sketch 51.2 (57519) - http://www.bohemiancoding.com/sketch -->
    <title>Share</title>
    <desc>Created with Sketch.</desc>
    <defs></defs>
    <g id="Page-1" stroke="none" stroke-width="1" fill="none" fill-rule="evenodd">
        <g id="Share" transform="translate(2.000000, -2.000000)">
            <circle id="Oval" class="fill-neutral" fill-rule="nonzero" cx="137.1" cy="53.7" r="9.1"></circle>
            <circle id="Oval" class="fill-neutral" fill-rule="nonzero" transform="translate(123.466790, 13.341390) rotate(-45.000000) translate(-123.466790, -13.341390) " cx="123.46679" cy="13.34139" r="9.09991273"></circle>
            <circle id="Oval" class="fill-neutral" fill-rule="nonzero" transform="translate(122.238230, 90.955370) rotate(-45.000000) translate(-122.238230, -90.955370) " cx="122.23823" cy="90.95537" r="9.09991273"></circle>
            <circle id="Oval" class="fill-neutral" fill-rule="nonzero" cx="9.1" cy="53.7" r="9.1"></circle>
            <circle id="Oval" class="fill-neutral" fill-rule="nonzero" transform="translate(22.667010, 13.339470) rotate(-45.000000) translate(-22.667010, -13.339470) " cx="22.66701" cy="13.33947" r="9.09991273"></circle>
            <circle id="Oval" class="fill-neutral" fill-rule="nonzero" transform="translate(23.836190, 90.948610) rotate(-45.000000) translate(-23.836190, -90.948610) " cx="23.83619" cy="90.94861" r="9.09991273"></circle>
            <circle id="Oval" class="fill-primary-100" fill-rule="nonzero" cx="138.6" cy="55.2" r="7.6"></circle>
            <circle id="Oval" class="fill-primary-100" fill-rule="nonzero" transform="translate(125.004300, 14.850980) rotate(-45.000000) translate(-125.004300, -14.850980) " cx="125.0043" cy="14.85098" r="7.59992712"></circle>
            <circle id="Oval" class="fill-primary-100" fill-rule="nonzero" transform="translate(123.633910, 92.365770) rotate(-45.000000) translate(-123.633910, -92.365770) " cx="123.63391" cy="92.36577" r="7.69992616"></circle>
            <circle id="Oval" class="fill-primary-100" fill-rule="nonzero" cx="10.4" cy="55.1" r="7.8"></circle>
            <circle id="Oval" class="fill-primary-100" fill-rule="nonzero" transform="translate(24.204420, 14.848860) rotate(-45.000000) translate(-24.204420, -14.848860) " cx="24.20442" cy="14.84886" r="7.59992712"></circle>
            <circle id="Oval" class="fill-primary-100" fill-rule="nonzero" transform="translate(25.232070, 92.358710) rotate(-45.000000) translate(-25.232070, -92.358710) " cx="25.23207" cy="92.35871" r="7.69992616"></circle>
            <g id="Group" transform="translate(41.000000, 21.000000)">
                <path d="M53.6,53.4 C41.5,65.5 21.9,65.5 9.9,53.4 C-2.2,41.3 -2.2,21.7 9.9,9.7 C22,-2.4 41.6,-2.4 53.6,9.7 C65.7,21.7 65.7,41.3 53.6,53.4 Z" id="Shape" class="fill-neutral" fill-rule="nonzero"></path>
                <path d="M54.1,53.8 C42.7,65.2 24.2,65.2 12.9,53.8 C1.5,42.4 1.5,24 12.9,12.6 C24.3,1.2 42.7,1.2 54.1,12.6 C65.5,23.9 65.5,42.4 54.1,53.8 Z" id="Shape" class="fill-primary-300" fill-rule="nonzero"></path>
                <path d="M32.2,0.6 C39.9,0.7 47.7,3.7 53.6,9.7 C65.7,21.8 65.7,41.4 53.6,53.4 C49.9,57.1 45.4,59.7 40.6,61.2 M18.9,3.4 C20,2.9 21.2,2.4 22.3,2.1 M24.9,61.7 C19.4,60.5 14.1,57.7 9.8,53.4 C-2.3,41.3 -2.3,21.7 9.8,9.7 C10.2,9.3 10.7,8.9 11.1,8.5" id="Shape" class="stroke-primary" stroke-width="3" stroke-linecap="round" stroke-linejoin="round"></path>
                <g transform="translate(15.000000, 12.000000)">
                    <path d="M7.4,14.3 C9,17.3 12.2,19.4 15.8,19.4 C21.1,19.4 25.3,15.1 25.3,9.9 C25.3,4.6 21,0.4 15.8,0.4 C10.6,0.4 6.3,4.7 6.3,9.9 C6.3,11.5 6.7,13 7.4,14.3" id="Shape" class="fill-neutral" fill-rule="nonzero"></path>
                    <circle id="Oval" class="fill-primary-100" fill-rule="nonzero" cx="17.4" cy="11.4" r="8"></circle>
                    <path d="M26.5,20.8 C30.9,24.1 34.1,28.5 34.1,33.6 C34.1,35.2 32.5,35.2 32.5,35.2 L20.7,35.2 L13.5,35.2 L1.7,35.2 C1.7,35.2 0.1,35.2 0.1,33.6 C0.1,27 5.3,21.7 11.6,18.2" id="Shape" class="fill-neutral" fill-rule="nonzero"></path>
                    <path d="M14.7,20.7 C8.9,22.7 4.9,28.2 4.9,33.9 C4.9,35.3 6.3,35.3 6.3,35.3 L16.4,35.3 L22.6,35.3 L32.7,35.3 C32.7,35.3 34.1,35.3 34.1,33.9 C34.1,29.5 32.1,25.5 28.5,22.4 C27.4,21.4 26.2,20.5 24.8,20 C21.7,18.8 18.2,19.6 15.1,20.6 C15,20.7 14.8,20.7 14.7,20.7 Z" id="Shape" class="fill-primary-100" fill-rule="nonzero"></path>
                    <path d="M11.4,18.3 C12.7,19 14.2,19.4 15.8,19.4 C21.1,19.4 25.3,15.1 25.3,9.9 C25.3,4.6 21,0.4 15.8,0.4 C10.6,0.4 6.3,4.7 6.3,9.9 C6.3,11 6.5,12 6.8,13" id="Shape" class="stroke-primary" stroke-width="3" stroke-linecap="round" stroke-linejoin="round"></path>
                    <path d="M26.5,20.8 C30.9,24.1 34.1,28.5 34.1,33.6 C34.1,35.2 32.5,35.2 32.5,35.2 L20.7,35.2 L13.5,35.2 L1.7,35.2 C1.7,35.2 0.1,35.2 0.1,33.6 C0.1,27 5.3,21.7 11.6,18.2" id="Shape" class="stroke-primary" stroke-width="3" stroke-linecap="round" stroke-linejoin="round"></path>
                </g>
            </g>
            <circle id="Oval" class="stroke-primary" stroke-width="3" stroke-linecap="round" stroke-linejoin="round" cx="137.1" cy="53.7" r="9.1"></circle>
            <path d="M123.6,53.7 L112.3,53.7" id="Shape" class="stroke-primary" stroke-width="3" stroke-linecap="round" stroke-linejoin="round"></path>
            <circle id="Oval" class="stroke-primary" stroke-width="2.99997123" stroke-linecap="round" stroke-linejoin="round" transform="translate(123.466790, 13.341390) rotate(-45.000000) translate(-123.466790, -13.341390) " cx="123.46679" cy="13.34139" r="9.09991273"></circle>
            <path d="M113.9,22.9 L106,30.9" id="Shape" class="stroke-primary" stroke-width="3" stroke-linecap="round" stroke-linejoin="round"></path>
            <path d="M120.5,82 C118.8,82.3 117.1,83.2 115.8,84.5 C112.2,88.1 112.2,93.9 115.8,97.4 C119.4,101 125.2,101 128.7,97.4 C132.3,93.8 132.3,88 128.7,84.5 C128.2,84 127.6,83.5 127,83.1" id="Shape" class="stroke-primary" stroke-width="3" stroke-linecap="round" stroke-linejoin="round"></path>
            <path d="M112.7,81.5 L104.8,73.5" id="Shape" class="stroke-primary" stroke-width="3" stroke-linecap="round" stroke-linejoin="round"></path>
            <circle id="Oval" class="stroke-primary" stroke-width="3" stroke-linecap="round" stroke-linejoin="round" cx="9.1" cy="53.7" r="9.1"></circle>
            <path d="M22.6,53.7 L33.8,53.7" id="Shape" class="stroke-primary" stroke-width="3" stroke-linecap="round" stroke-linejoin="round"></path>
            <path d="M29.9,19 C32.7,15.4 32.5,10.2 29.2,6.9 C27.2,4.9 24.5,4 21.9,4.3" id="Shape" class="stroke-primary" stroke-width="3" stroke-linecap="round" stroke-linejoin="round"></path>
            <path d="M15.8,7.3 C12.6,10.9 12.8,16.4 16.2,19.8 C18.1,21.7 20.6,22.6 23.1,22.5" id="Shape" class="stroke-primary" stroke-width="3" stroke-linecap="round" stroke-linejoin="round"></path>
            <path d="M32.2,22.9 L40.2,30.9" id="Shape" class="stroke-primary" stroke-width="3" stroke-linecap="round" stroke-linejoin="round"></path>
            <path d="M30.9,96.9 C30.7,97.1 30.6,97.3 30.4,97.5 C26.8,101.1 21,101.1 17.5,97.5 C13.9,93.9 13.9,88.1 17.5,84.6 C21.1,81 26.9,81 30.4,84.6 C31.9,86.1 32.8,88.1 33,90.1" id="Shape" class="stroke-primary" stroke-width="3" stroke-linecap="round" stroke-linejoin="round"></path>
            <path d="M33.4,81.5 L41.4,73.5" id="Shape" class="stroke-primary" stroke-width="3" stroke-linecap="round" stroke-linejoin="round"></path>
        </g>
    </g>
</svg>
